X:1
T:Title
%%score [ ( 1 2 ) ( 3 4 ) ]
L:1/8
Q:1/4=240
M:4/4
K:F
V:1 treble nm="Midi_74"
V:2 treble 
V:3 bass nm="Midi_74"
V:4 bass 
V:1
"^J. Barnby\n(1838-96)" A8 | F4 G4 | A8 || A8 | F4 A4 | d4 d4 | ^c8 || d8 | A4 c4 | B8 || A8 | %11
 F4 G4 | E4 E4 | D8 |] %14
V:2
 A8 | F4 G4 | A8 || ^C8 | D4 E4 | D4 E4 | E8 || ^F8 | D4 D4 | D8 || E8 | D4 D4 | D4 ^C4 | D8 |] %14
V:3
 A,8 | F,4 G,4 | A,8 || A,8 | A,4 A,4 | F,4 G,4 | A,8 || A,8 | A,4 ^F,4 | G,8 || E,8 | A,4 G,4 | %12
 A,4 A,4 | F,8 |] %14
V:4
 A,8 | F,4 G,4 | A,8 || A,,8 | D,4 C,4 | B,,4 B,,4 | A,,8 || D,8 | ^F,4 D,4 | G,8 || ^C,8 | %11
 D,4 B,,4 | A,,4 A,,4 | D,8 |] %14

